X:10
T:Haavar Hedde
C:Trad. 
N:
D:Storm "Nordavind"
O:Norge - Norway - Norvège
Z:Eric Forgeot - http://anamnese.online.fr
M:2/4
L:1/8
Q:1/4=120
K:Eb
C | G>G A>G | G2 CD | E>D C>=B, | C2 zG | G>F G>=B | d>c cB | G>G F>F |!
G2 zF | E>E F>E | D2 zC | G>G A>G | G2 CD | E>D C>=B, | C2 z |]
W:Eg heiter Håvar Hedde 
W:og er så ven ein kar ; 
W:no vil eg burt og gifta meg 
W:og ryddja meg ein gard. 
W:Eg bur opp under fjell, 
W:og jenta hev eg lova ;  
W:eg svik ho inkje hell 
W:
W:Eg heter Håvar Hedde 
W:og bur opp under nut, 
W:no vil eg burt og gifta meg 
W:eg vil 'kje lenger gange gut. 
W:Eg bur opp under... 
W:
W:Garden den er liten  
W:men skogen den er god 
W:og heve der tvo furur, 
W:og dei skal stå i ro. 
W:Eg bur opp under... 
W:
W:Og når det lid på tida 
W:og borni aukar på, 
W:så høgg eg ned den eine, 
W:den andre let eg stå. 
W:Eg bur opp under... 
W:
W:Men når me verte gamle 
W:og kvar skal hava sit, 
W:så høgg eg ned den andre 
W:og då er skogen kvitt. 
W:Eg bur opp under... 
W:
W:Det var no inkje undrands 
W:at Håvar totte vondt, 
W:han reiste i frå Lanjei 
W:den myrke haustenott. 
W:Eg bur opp under... 
W:
W:Han reiste i frå Lanjei 
W:og då var jenta fest, 
W:man det var med ein annan  
W:det hav han trega mest. 
W:Eg bur opp under...

